static/icons/basic/extension.svg

<svg width="28" height="28" viewBox="0 0 28 28" fill="none" xmlns="http://www.w3.org/2000/svg">
<path d="M9.2 2H4.13333C3.3866 2 3.01323 2 2.72801 2.14532C2.47713 2.27316 2.27316 2.47713 2.14532 2.72801C2 3.01323 2 3.3866 2 4.13333V9.2C2 9.94674 2 10.3201 2.14532 10.6053C2.27316 10.8562 2.47713 11.0602 2.72801 11.188C3.01323 11.3333 3.3866 11.3333 4.13333 11.3333H9.2C9.94674 11.3333 10.3201 11.3333 10.6053 11.188C10.8562 11.0602 11.0602 10.8562 11.188 10.6053C11.3333 10.3201 11.3333 9.94674 11.3333 9.2V4.13333C11.3333 3.3866 11.3333 3.01323 11.188 2.72801C11.0602 2.47713 10.8562 2.27316 10.6053 2.14532C10.3201 2 9.94674 2 9.2 2Z" stroke="#121315" stroke-width="2.66667" stroke-linecap="round" stroke-linejoin="round"/>
<path d="M23.8667 2H18.8C18.0533 2 17.6799 2 17.3947 2.14532C17.1438 2.27316 16.9398 2.47713 16.812 2.72801C16.6667 3.01323 16.6667 3.3866 16.6667 4.13333V9.2C16.6667 9.94674 16.6667 10.3201 16.812 10.6053C16.9398 10.8562 17.1438 11.0602 17.3947 11.188C17.6799 11.3333 18.0533 11.3333 18.8 11.3333H23.8667C24.6134 11.3333 24.9868 11.3333 25.272 11.188C25.5229 11.0602 25.7268 10.8562 25.8547 10.6053C26 10.3201 26 9.94674 26 9.2V4.13333C26 3.3866 26 3.01323 25.8547 2.72801C25.7268 2.47713 25.5229 2.27316 25.272 2.14532C24.9868 2 24.6134 2 23.8667 2Z" stroke="#121315" stroke-width="2.66667" stroke-linecap="round" stroke-linejoin="round"/>
<path d="M23.8667 16.6667H18.8C18.0533 16.6667 17.6799 16.6667 17.3947 16.812C17.1438 16.9398 16.9398 17.1438 16.812 17.3947C16.6667 17.6799 16.6667 18.0533 16.6667 18.8V23.8667C16.6667 24.6134 16.6667 24.9868 16.812 25.272C16.9398 25.5229 17.1438 25.7268 17.3947 25.8547C17.6799 26 18.0533 26 18.8 26H23.8667C24.6134 26 24.9868 26 25.272 25.8547C25.5229 25.7268 25.7268 25.5229 25.8547 25.272C26 24.9868 26 24.6134 26 23.8667V18.8C26 18.0533 26 17.6799 25.8547 17.3947C25.7268 17.1438 25.5229 16.9398 25.272 16.812C24.9868 16.6667 24.6134 16.6667 23.8667 16.6667Z" stroke="#121315" stroke-width="2.66667" stroke-linecap="round" stroke-linejoin="round"/>
<path d="M9.2 16.6667H4.13333C3.3866 16.6667 3.01323 16.6667 2.72801 16.812C2.47713 16.9398 2.27316 17.1438 2.14532 17.3947C2 17.6799 2 18.0533 2 18.8V23.8667C2 24.6134 2 24.9868 2.14532 25.272C2.27316 25.5229 2.47713 25.7268 2.72801 25.8547C3.01323 26 3.3866 26 4.13333 26H9.2C9.94674 26 10.3201 26 10.6053 25.8547C10.8562 25.7268 11.0602 25.5229 11.188 25.272C11.3333 24.9868 11.3333 24.6134 11.3333 23.8667V18.8C11.3333 18.0533 11.3333 17.6799 11.188 17.3947C11.0602 17.1438 10.8562 16.9398 10.6053 16.812C10.3201 16.6667 9.94674 16.6667 9.2 16.6667Z" stroke="#121315" stroke-width="2.66667" stroke-linecap="round" stroke-linejoin="round"/>
</svg>

<svg xmlns="http://www.w3.org/2000/svg" width="28" height="28" fill="none"><path stroke="#121315" stroke-linecap="round" stroke-linejoin="round" stroke-width="2.667" d="M9.2 2H4.133c-.746 0-1.12 0-1.405.145a1.34 1.34 0 0 0-.583.583C2 3.013 2 3.387 2 4.133V9.2c0 .747 0 1.12.145 1.405.128.251.332.455.583.583.285.145.659.145 1.405.145H9.2c.747 0 1.12 0 1.405-.145.251-.128.455-.332.583-.583.145-.285.145-.658.145-1.405V4.133c0-.746 0-1.12-.145-1.405a1.333 1.333 0 0 0-.583-.583C10.32 2 9.947 2 9.2 2m14.667 0H18.8c-.747 0-1.12 0-1.405.145a1.335 1.335 0 0 0-.583.583c-.145.285-.145.659-.145 1.405V9.2c0 .747 0 1.12.145 1.405.128.251.332.455.583.583.285.145.658.145 1.405.145h5.067c.746 0 1.12 0 1.405-.145a1.34 1.34 0 0 0 .583-.583C26 10.32 26 9.947 26 9.2V4.133c0-.746 0-1.12-.145-1.405a1.334 1.334 0 0 0-.583-.583C24.987 2 24.613 2 23.867 2m0 14.667H18.8c-.747 0-1.12 0-1.405.145a1.335 1.335 0 0 0-.583.583c-.145.285-.145.658-.145 1.405v5.067c0 .746 0 1.12.145 1.405.128.25.332.455.583.583.285.145.658.145 1.405.145h5.067c.746 0 1.12 0 1.405-.145a1.34 1.34 0 0 0 .583-.583c.145-.285.145-.659.145-1.405V18.8c0-.747 0-1.12-.145-1.405a1.333 1.333 0 0 0-.583-.583c-.285-.145-.659-.145-1.405-.145m-14.667 0H4.133c-.746 0-1.12 0-1.405.145a1.34 1.34 0 0 0-.583.583C2 17.68 2 18.053 2 18.8v5.067c0 .746 0 1.12.145 1.405.128.25.332.455.583.583.285.145.659.145 1.405.145H9.2c.747 0 1.12 0 1.405-.145.251-.128.455-.332.583-.583.145-.285.145-.659.145-1.405V18.8c0-.747 0-1.12-.145-1.405a1.333 1.333 0 0 0-.583-.583c-.285-.145-.658-.145-1.405-.145"/></svg>
